symbols/web/devices_other/materialsymbolssharp/devices_other_wght300gradN25_20px.svg

<svg xmlns="http://www.w3.org/2000/svg" height="20" width="20"><path d="M6.021 16.104H2.25V3.896h14.333v1.25H3.5v9.708h2.521Zm1.937 0v-1.333q-.396-.313-.614-.75-.219-.438-.219-.959 0-.52.219-.958.218-.437.614-.75v-1.333h2.792v1.333q.396.313.604.75.208.438.208.958 0 .521-.208.959-.208.437-.604.75v1.333Zm1.396-1.854q.5 0 .844-.344t.344-.844q0-.5-.344-.843-.344-.344-.844-.344t-.844.344q-.343.343-.343.843 0 .5.333.844t.854.344Zm3.334 1.854V7.75h5.062v8.354Zm1.25-1.25H16.5V8.979h-2.562Z"/></svg>

<svg xmlns="http://www.w3.org/2000/svg" height="20" width="20"><path d="M6.021 16.104H2.25V3.896H16.583V5.146H3.5V14.854H6.021ZM7.958 16.104V14.771Q7.562 14.458 7.344 14.021Q7.125 13.583 7.125 13.062Q7.125 12.542 7.344 12.104Q7.562 11.667 7.958 11.354V10.021H10.75V11.354Q11.146 11.667 11.354 12.104Q11.562 12.542 11.562 13.062Q11.562 13.583 11.354 14.021Q11.146 14.458 10.75 14.771V16.104ZM9.354 14.25Q9.854 14.25 10.198 13.906Q10.542 13.562 10.542 13.062Q10.542 12.562 10.198 12.219Q9.854 11.875 9.354 11.875Q8.854 11.875 8.51 12.219Q8.167 12.562 8.167 13.062Q8.167 13.562 8.5 13.906Q8.833 14.25 9.354 14.25ZM12.688 16.104V7.75H17.75V16.104ZM13.938 14.854H16.5V8.979H13.938Z"/></svg>
